X: 32429
T: Piper's Turn, The
R: jig
M: 6/8
K: Gmajor
|:(3.B.c.B A BDD|BDD FGA|(3.B.c.B A BDD|FGA ABc|
(3.B.c.B A BDD|BDD FGA|Bdd dcB|cDD ABc:|
dcB dBB|dBB ABc|dcB dBB|ADD ABc|
dcB dBB|dBB ABc|dge age|fAA cBA|
|:G2 g gfg|d2g fga|bag age|fAA cBA|
G2 g gfg|d.g.g fga bag|age fBA|cBA:|

